X:865
T:Merry Sisters Of Fate, The
T:Merry Sisters, The
R:reel
H:See also "The Shepherd's Daughter", #315, #721
H:See also "The Merry Harriers", #609
H:See also "The Three Merry Sisters Of Fate", #939
H:Also in Edor, #864
D:Lunasa
Z:id:hn-reel-865
M:C|
L:1/8
K:Ador
|: eA~A2 egfd | eA~A2 gdBd | eA~A2 egfd | BG~G2 DGBd :|
eaaf g2fg | eaag edBd | eaaf g2fg | egde gdBG |
eaaf g2fg | egab c'bag | eaaf g2fg | egde gdBG ||
Agfg egdg | eA~A2 eA~B2 | egfg egde | BG~G2 DGBd |
egfg egdg | eA~A2 eA~B2 | DGBd ~g3a | (3bag af g2fg ||  

